flaticon/real-estate/apartment-6.svg

<svg xmlns="http://www.w3.org/2000/svg" width="32" height="32" viewBox="0 0 24 24">
    <path d="M 22.601562 9.601562 C 23.359375 9.601562 24 8.960938 24 8.199219 C 24 7.441406 23.359375 6.800781 22.601562 6.800781 L 22.398438 6.800781 L 22.398438 2.398438 L 22.800781 2.398438 C 23.480469 2.398438 24 1.878906 24 1.199219 C 24 0.519531 23.480469 0 22.800781 0 L 1.199219 0 C 0.519531 0 0 0.519531 0 1.199219 C 0 1.878906 0.519531 2.398438 1.199219 2.398438 L 1.601562 2.398438 L 1.601562 6.800781 L 1.398438 6.800781 C 0.640625 6.800781 0 7.441406 0 8.199219 C 0 8.960938 0.640625 9.601562 1.398438 9.601562 L 1.601562 9.601562 L 1.601562 14.398438 L 1.398438 14.398438 C 0.640625 14.398438 0 15.039062 0 15.800781 C 0 16.558594 0.640625 17.199219 1.398438 17.199219 L 1.601562 17.199219 L 1.601562 23.601562 C 1.601562 23.839844 1.761719 24 2 24 L 22 24 C 22.238281 24 22.398438 23.839844 22.398438 23.601562 L 22.398438 17.199219 L 22.601562 17.199219 C 23.359375 17.199219 24 16.558594 24 15.800781 C 24 15.039062 23.359375 14.398438 22.601562 14.398438 L 22.398438 14.398438 L 22.398438 9.601562 Z M 0.800781 1.199219 C 0.800781 0.960938 0.960938 0.800781 1.199219 0.800781 L 22.800781 0.800781 C 23.039062 0.800781 23.199219 0.960938 23.199219 1.199219 C 23.199219 1.441406 23.039062 1.601562 22.800781 1.601562 L 1.199219 1.601562 C 0.960938 1.601562 0.800781 1.441406 0.800781 1.199219 Z M 2.398438 2.398438 L 21.601562 2.398438 L 21.601562 6.800781 L 20.398438 6.800781 L 20.398438 6 C 20.398438 4.679688 19.320312 3.601562 18 3.601562 C 16.679688 3.601562 15.601562 4.679688 15.601562 6 L 15.601562 6.800781 L 14.398438 6.800781 L 14.398438 6 C 14.398438 4.679688 13.320312 3.601562 12 3.601562 C 10.679688 3.601562 9.601562 4.679688 9.601562 6 L 9.601562 6.800781 L 8.398438 6.800781 L 8.398438 6 C 8.398438 4.679688 7.320312 3.601562 6 3.601562 C 4.679688 3.601562 3.601562 4.679688 3.601562 6 L 3.601562 6.800781 L 2.398438 6.800781 Z M 19.601562 6.800781 L 16.398438 6.800781 L 16.398438 6 C 16.398438 5.121094 17.121094 4.398438 18 4.398438 C 18.878906 4.398438 19.601562 5.121094 19.601562 6 Z M 13.601562 6.800781 L 10.398438 6.800781 L 10.398438 6 C 10.398438 5.121094 11.121094 4.398438 12 4.398438 C 12.878906 4.398438 13.601562 5.121094 13.601562 6 Z M 7.601562 6.800781 L 4.398438 6.800781 L 4.398438 6 C 4.398438 5.121094 5.121094 4.398438 6 4.398438 C 6.878906 4.398438 7.601562 5.121094 7.601562 6 Z M 0.800781 8.199219 C 0.800781 7.878906 1.078125 7.601562 1.398438 7.601562 L 22.601562 7.601562 C 22.921875 7.601562 23.199219 7.878906 23.199219 8.199219 C 23.199219 8.519531 22.921875 8.800781 22.601562 8.800781 L 1.398438 8.800781 C 1.078125 8.800781 0.800781 8.519531 0.800781 8.199219 Z M 10.398438 23.199219 L 10.398438 19.199219 L 13.601562 19.199219 L 13.601562 23.199219 Z M 21.601562 23.199219 L 14.398438 23.199219 L 14.398438 18.800781 C 14.398438 18.558594 14.238281 18.398438 14 18.398438 L 10 18.398438 C 9.761719 18.398438 9.601562 18.558594 9.601562 18.800781 L 9.601562 23.199219 L 2.398438 23.199219 L 2.398438 17.199219 L 21.601562 17.199219 Z M 23.199219 15.800781 C 23.199219 16.121094 22.921875 16.398438 22.601562 16.398438 L 1.398438 16.398438 C 1.078125 16.398438 0.800781 16.121094 0.800781 15.800781 C 0.800781 15.480469 1.078125 15.199219 1.398438 15.199219 L 22.601562 15.199219 C 22.921875 15.199219 23.199219 15.480469 23.199219 15.800781 Z M 7.601562 14.398438 L 4.398438 14.398438 L 4.398438 13.601562 C 4.398438 12.71875 5.121094 12 6 12 C 6.878906 12 7.601562 12.71875 7.601562 13.601562 Z M 13.601562 14.398438 L 10.398438 14.398438 L 10.398438 13.601562 C 10.398438 12.71875 11.121094 12 12 12 C 12.878906 12 13.601562 12.71875 13.601562 13.601562 Z M 19.601562 14.398438 L 16.398438 14.398438 L 16.398438 13.601562 C 16.398438 12.71875 17.121094 12 18 12 C 18.878906 12 19.601562 12.71875 19.601562 13.601562 Z M 21.601562 14.398438 L 20.398438 14.398438 L 20.398438 13.601562 C 20.398438 12.28125 19.320312 11.199219 18 11.199219 C 16.679688 11.199219 15.601562 12.28125 15.601562 13.601562 L 15.601562 14.398438 L 14.398438 14.398438 L 14.398438 13.601562 C 14.398438 12.28125 13.320312 11.199219 12 11.199219 C 10.679688 11.199219 9.601562 12.28125 9.601562 13.601562 L 9.601562 14.398438 L 8.398438 14.398438 L 8.398438 13.601562 C 8.398438 12.28125 7.320312 11.199219 6 11.199219 C 4.679688 11.199219 3.601562 12.28125 3.601562 13.601562 L 3.601562 14.398438 L 2.398438 14.398438 L 2.398438 9.601562 L 21.601562 9.601562 Z M 21.601562 14.398438"/>
    <path d="M4 21.601562L8 21.601562C8.238281 21.601562 8.398438 21.441406 8.398438 21.199219L8.398438 18.800781C8.398438 18.558594 8.238281 18.398438 8 18.398438L4 18.398438C3.761719 18.398438 3.601562 18.558594 3.601562 18.800781L3.601562 21.199219C3.601562 21.441406 3.761719 21.601562 4 21.601562zM4.398438 19.199219L7.601562 19.199219 7.601562 20.800781 4.398438 20.800781zM16 21.601562L20 21.601562C20.238281 21.601562 20.398438 21.441406 20.398438 21.199219L20.398438 18.800781C20.398438 18.558594 20.238281 18.398438 20 18.398438L16 18.398438C15.761719 18.398438 15.601562 18.558594 15.601562 18.800781L15.601562 21.199219C15.601562 21.441406 15.761719 21.601562 16 21.601562zM16.398438 19.199219L19.601562 19.199219 19.601562 20.800781 16.398438 20.800781zM16.398438 19.199219"/>
</svg>

<svg xmlns="http://www.w3.org/2000/svg" width="32" height="32" viewBox="0 0 24 24">
    <path d="M22.602 9.602c.757 0 1.398-.641 1.398-1.403 0-.758-.64-1.398-1.398-1.398h-.204V2.398h.403c.68 0 1.199-.52 1.199-1.199C24 .52 23.48 0 22.8 0H1.2C.52 0 0 .52 0 1.2c0 .679.52 1.198 1.2 1.198h.402v4.403h-.204C.641 6.8 0 7.44 0 8.199c0 .762.64 1.403 1.398 1.403h.204v4.796h-.204C.641 14.398 0 15.04 0 15.801c0 .758.64 1.398 1.398 1.398h.204v6.403c0 .238.16.398.398.398h20c.238 0 .398-.16.398-.398v-6.403h.204c.757 0 1.398-.64 1.398-1.398 0-.762-.64-1.403-1.398-1.403h-.204V9.602zM.8 1.199c0-.238.16-.398.398-.398h21.602c.238 0 .398.16.398.398 0 .242-.16.403-.398.403H1.199c-.238 0-.398-.16-.398-.403zm1.597 1.2h19.204V6.8h-1.204V6A2.404 2.404 0 0 0 18 3.602 2.404 2.404 0 0 0 15.602 6v.8h-1.204V6A2.404 2.404 0 0 0 12 3.602 2.404 2.404 0 0 0 9.602 6v.8H8.398V6A2.404 2.404 0 0 0 6 3.602 2.404 2.404 0 0 0 3.602 6v.8H2.398zM19.602 6.8h-3.204V6c0-.879.723-1.602 1.602-1.602.879 0 1.602.723 1.602 1.602zm-6 0h-3.204V6c0-.879.723-1.602 1.602-1.602.879 0 1.602.723 1.602 1.602zm-6 0H4.398V6c0-.879.723-1.602 1.602-1.602.879 0 1.602.723 1.602 1.602zM.8 8.199a.61.61 0 0 1 .597-.597h21.204a.61.61 0 0 1 .597.597c0 .32-.277.602-.597.602H1.398a.614.614 0 0 1-.597-.602zm9.597 15v-4h3.204v4zm11.204 0h-7.204v-4.398c0-.242-.16-.403-.398-.403h-4c-.238 0-.398.16-.398.403v4.398H2.398v-6h19.204zm1.597-7.398a.61.61 0 0 1-.597.597H1.398a.61.61 0 0 1-.597-.597c0-.32.277-.602.597-.602h21.204c.32 0 .597.281.597.602zM7.602 14.398H4.398v-.796C4.398 12.719 5.121 12 6 12c.879 0 1.602.719 1.602 1.602zm6 0h-3.204v-.796c0-.883.723-1.602 1.602-1.602.879 0 1.602.719 1.602 1.602zm6 0h-3.204v-.796c0-.883.723-1.602 1.602-1.602.879 0 1.602.719 1.602 1.602zm2 0h-1.204v-.796A2.407 2.407 0 0 0 18 11.199a2.407 2.407 0 0 0-2.398 2.403v.796h-1.204v-.796A2.407 2.407 0 0 0 12 11.199a2.407 2.407 0 0 0-2.398 2.403v.796H8.398v-.796A2.407 2.407 0 0 0 6 11.199a2.407 2.407 0 0 0-2.398 2.403v.796H2.398V9.602h19.204zm0 0"/>
    <path d="M4 21.602h4c.238 0 .398-.16.398-.403v-2.398c0-.242-.16-.403-.398-.403H4c-.238 0-.398.16-.398.403v2.398c0 .242.16.403.398.403zm.398-2.403h3.204v1.602H4.398zm0 0M16 21.602h4c.238 0 .398-.16.398-.403v-2.398c0-.242-.16-.403-.398-.403h-4c-.238 0-.398.16-.398.403v2.398c0 .242.16.403.398.403zm.398-2.403h3.204v1.602h-3.204zm0 0"/>
</svg>
